assets/features/channel/southeast-asia1/krungsri.svg

<svg width="80" height="80" viewBox="0 0 80 80" fill="none" xmlns="http://www.w3.org/2000/svg">
<rect width="80" height="80" rx="8" fill="#6F5F5E"/>
<path d="M33.953 43.305C32.699 42.0132 31.1881 39.9207 30.2514 36.8838C30.2514 36.8838 30.2136 36.7705 30.1607 36.7705C30.1078 36.7705 30.0474 36.8989 30.0474 36.8989C27.9851 43.5845 23.0218 46.2134 21.3297 46.7876C21.239 46.8178 21.239 46.8933 21.239 46.9311C22.1002 49.2881 23.4071 51.426 25.0464 53.2617C25.0842 53.2843 25.1371 53.3145 25.2277 53.2617C30.546 50.2248 33.5828 44.3022 33.9832 43.4712C34.021 43.3957 33.9832 43.3428 33.953 43.305Z" fill="#FFD400"/>
<path d="M46.0172 43.305C46.0374 43.305 46.0374 43.305 46.0172 43.305C47.2713 42.0132 48.7821 39.9207 49.734 36.8838C49.734 36.8838 49.7717 36.7705 49.8246 36.7705C49.8851 36.7705 49.9379 36.8989 49.9379 36.8989C52.0003 43.5845 56.971 46.2134 58.6632 46.7876C58.7539 46.8178 58.7539 46.8933 58.7539 46.9311C57.8851 49.2881 56.5782 51.426 54.9465 53.2617C54.9087 53.2843 54.8483 53.3145 54.7576 53.2617C49.4242 50.2248 46.4025 44.3022 46.0021 43.4712C45.9644 43.3957 46.0172 43.3428 46.0172 43.305Z" fill="#FFD400"/>
<path d="M49.6282 57.4014C42.104 50.0813 40.1097 36.9896 40.1097 36.9896C40.1097 36.9896 40.0795 36.7705 39.9813 36.7705C39.8906 36.7705 39.8529 36.9896 39.8529 36.9896C39.8529 36.9896 37.8887 50.0813 30.3419 57.4014C30.3419 57.4014 30.2664 57.477 30.3419 57.5299C33.1597 59.0785 36.393 59.985 39.8377 60.0001H39.9662H40.0946C43.5394 59.985 46.7726 59.0785 49.5904 57.5299C49.6962 57.477 49.6282 57.4014 49.6282 57.4014Z" fill="#FFD400"/>
<path d="M50.4366 22.9308C50.3232 22.8703 50.3232 23.0214 50.3232 23.0214C50.3459 25.3784 50.6556 38.4096 59.7435 42.3832C59.8342 42.421 59.8568 42.3681 59.8568 42.3455C59.9475 41.5749 60.0004 40.8044 60.0004 40.0112C59.9853 32.759 56.1552 26.4435 50.4366 22.9308Z" fill="#FFD400"/>
<path d="M29.5714 22.9308C29.6771 22.8703 29.6771 23.0214 29.6771 23.0214C29.662 25.3784 29.3523 38.4096 20.2568 42.3832C20.1889 42.421 20.1511 42.3681 20.1511 42.3455C20.0604 41.5749 20 40.8044 20 40.0112C20 32.759 23.8301 26.4435 29.5714 22.9308Z" fill="#FFD400"/>
<path d="M49.2204 22.2512C46.6292 20.8839 43.6981 20.0907 40.5706 20C40.48 20 40.5026 20.1133 40.5026 20.1133C40.5026 24.0869 41.1448 33.3863 44.2345 39.664C44.2572 39.732 44.31 39.6942 44.3478 39.6942L44.3629 39.6791C44.6802 39.3467 49.4772 34.0662 49.2959 22.3947C49.2959 22.3041 49.243 22.2512 49.2204 22.2512Z" fill="#FFD400"/>
<path d="M30.765 22.2512C33.3637 20.8839 36.3023 20.0907 39.4147 20C39.5054 20 39.4903 20.1133 39.4903 20.1133C39.4903 24.0869 38.8406 33.3863 35.7358 39.664C35.7131 39.732 35.6451 39.6942 35.6451 39.6942C35.6224 39.6942 35.6224 39.6791 35.6224 39.6791C35.3127 39.3467 30.5081 34.0662 30.6895 22.3947C30.6895 22.3041 30.7272 22.2512 30.765 22.2512Z" fill="#FFD400"/>
</svg>

<svg xmlns="http://www.w3.org/2000/svg" width="80" height="80" fill="none" viewBox="0 0 80 80"><rect width="80" height="80" fill="#6f5f5e" rx="8"/><path fill="#ffd400" d="M33.953 43.305c-1.254-1.292-2.765-3.384-3.702-6.421 0 0-.037-.114-.09-.114s-.114.129-.114.129c-2.062 6.685-7.025 9.314-8.717 9.889-.091.03-.091.105-.091.143a19.6 19.6 0 0 0 3.807 6.33c.038.023.091.053.182 0 5.318-3.036 8.355-8.959 8.755-9.79.038-.075 0-.128-.03-.166m12.064 0q.03 0 0 0c1.254-1.292 2.765-3.384 3.717-6.421 0 0 .038-.114.09-.114.061 0 .114.129.114.129 2.062 6.685 7.033 9.314 8.725 9.889.09.03.09.105.09.143a19.9 19.9 0 0 1-3.806 6.33c-.038.023-.099.053-.19 0-5.333-3.036-8.354-8.959-8.755-9.79-.038-.075.015-.128.015-.166m3.611 14.096c-7.524-7.32-9.518-20.411-9.518-20.411s-.03-.22-.129-.22c-.09 0-.128.22-.128.22s-1.964 13.09-9.511 20.41c0 0-.076.076 0 .129A19.85 19.85 0 0 0 39.838 60h.257a19.85 19.85 0 0 0 9.495-2.47c.106-.053.038-.129.038-.129m.809-34.471c-.114-.06-.114.091-.114.091.023 2.357.333 15.389 9.42 19.362.091.038.114-.015.114-.038.09-.77.143-1.54.143-2.334a20.05 20.05 0 0 0-9.563-17.08m-20.866-.001c.106-.06.106.091.106.091-.015 2.357-.325 15.389-9.42 19.362-.068.038-.106-.015-.106-.038-.09-.77-.151-1.54-.151-2.334 0-7.252 3.83-13.568 9.571-17.08m19.649-.68c-2.59-1.367-5.522-2.16-8.65-2.251-.09 0-.067.113-.067.113 0 3.974.642 13.273 3.731 19.551.023.068.076.03.114.03l.015-.015c.317-.332 5.114-5.613 4.933-17.284 0-.09-.053-.144-.076-.144m-18.455 0A19.76 19.76 0 0 1 39.415 20c.09 0 .075.113.075.113 0 3.974-.65 13.273-3.754 19.551-.023.068-.09.03-.09.03-.024 0-.024-.015-.024-.015-.31-.332-5.114-5.613-4.933-17.284 0-.09.038-.144.076-.144"/></svg>
